azure-patterns/svg-devops-scrum.svg

<svg xmlns="http://www.w3.org/2000/svg" viewBox="0 0 80 80">
                                
                            
    <rect width="80" height="80" fill="black" fill-opacity="0"></rect>
    <circle cx="40" cy="40" r="40" fill="#00B294" fill-opacity="0.05"></circle>
    <path d="M60 54.1597L54.2512 60L52.5323 58.2537L55.3399 55.4015H48.025C49.0818 54.6771 50.0495 53.8493 50.928 52.9179H55.3399L52.5323 50.0657L54.2512 48.3194L60 54.1597ZM52.7806 40.5C52.7806 41.8711 52.6024 43.1905 52.2458 44.4582C51.9021 45.7259 51.4119 46.9159 50.7752 48.0284C50.1386 49.1279 49.3746 50.1303 48.4833 51.0358C47.5921 51.9413 46.5989 52.7174 45.5039 53.3642C44.4216 54.0109 43.2566 54.5154 42.0088 54.8776C40.761 55.2269 39.4623 55.4015 38.1126 55.4015H21V52.9179H38.1126C39.2331 52.9179 40.3154 52.7692 41.3595 52.4716C42.4035 52.1741 43.3776 51.7602 44.2816 51.2299C45.1856 50.6866 46.0069 50.0398 46.7453 49.2896C47.4966 48.5264 48.1332 47.6856 48.6552 46.7672C49.19 45.8488 49.6038 44.8592 49.8967 43.7985C50.1895 42.7378 50.3359 41.6383 50.3359 40.5C50.3359 39.3617 50.1895 38.2622 49.8967 37.2015C49.6038 36.1408 49.19 35.1512 48.6552 34.2328C48.1332 33.3144 47.4966 32.4801 46.7453 31.7299C46.0069 30.9667 45.1856 30.3199 44.2816 29.7896C43.3776 29.2463 42.4035 28.8259 41.3595 28.5284C40.3154 28.2308 39.2331 28.0821 38.1126 28.0821C38.0235 28.0821 37.9344 28.0886 37.8452 28.1015C37.7561 28.1015 37.6606 28.108 37.5588 28.1209H37.4442L40.1944 30.9343L38.4755 32.6806L32.7267 26.8403L38.4755 21L40.1944 22.7463L37.3678 25.6179C37.4951 25.605 37.6161 25.5985 37.7307 25.5985C37.858 25.5985 37.9853 25.5985 38.1126 25.5985C39.4623 25.5985 40.761 25.7796 42.0088 26.1418C43.2566 26.491 44.4216 26.9891 45.5039 27.6358C46.5989 28.2826 47.5921 29.0587 48.4833 29.9642C49.3746 30.8697 50.1386 31.8786 50.7752 32.991C51.4119 34.0905 51.9021 35.2741 52.2458 36.5418C52.6024 37.8095 52.7806 39.1289 52.7806 40.5ZM27.2071 50.4343C25.9976 49.0632 25.0681 47.5303 24.4187 45.8358C23.7693 44.1284 23.4447 42.3498 23.4447 40.5C23.4447 39.2841 23.5847 38.094 23.8648 36.9299C24.1577 35.7527 24.5779 34.6403 25.1254 33.5925C25.6729 32.5318 26.335 31.5552 27.1117 30.6627C27.9011 29.7572 28.7924 28.9552 29.7855 28.2567L31.5617 30.0612C30.6832 30.6303 29.8937 31.2965 29.1934 32.0597C28.4931 32.8229 27.8947 33.6572 27.3981 34.5627C26.9143 35.4552 26.5387 36.406 26.2713 37.4149C26.0167 38.4109 25.8893 39.4393 25.8893 40.5C25.8893 41.4831 26.0039 42.4468 26.2331 43.391C26.4623 44.3224 26.787 45.2149 27.2071 46.0687C27.6401 46.9095 28.1621 47.705 28.7733 48.4552C29.3844 49.1925 30.0784 49.8522 30.855 50.4343H27.2071Z" fill="#00B294"></path>
</svg>

<svg xmlns="http://www.w3.org/2000/svg" viewBox="0 0 80 80"><path fill="none" d="M0 0h80v80H0z"/><circle cx="40" cy="40" r="40" fill="#00B294" fill-opacity=".05"/><path d="M60 54.16L54.251 60l-1.719-1.746 2.808-2.852h-7.315a17.86 17.86 0 0 0 2.903-2.484h4.412l-2.808-2.852 1.72-1.747L60 54.16zM52.78 40.5c0 1.371-.178 2.69-.534 3.958a15.12 15.12 0 0 1-1.47 3.57c-.637 1.1-1.401 2.102-2.293 3.008a14.534 14.534 0 0 1-2.98 2.328 14.855 14.855 0 0 1-3.494 1.514c-1.248.349-2.547.523-3.896.523H21v-2.483h17.113c1.12 0 2.202-.149 3.246-.446a12.54 12.54 0 0 0 2.923-1.242 12.42 12.42 0 0 0 2.463-1.94 12.12 12.12 0 0 0 1.91-2.523 12.463 12.463 0 0 0 1.68-6.267 12.463 12.463 0 0 0-1.68-6.267 11.674 11.674 0 0 0-1.91-2.503 11.539 11.539 0 0 0-2.463-1.94 12.061 12.061 0 0 0-2.922-1.262 11.787 11.787 0 0 0-3.247-.446c-.09 0-.179.007-.268.02-.089 0-.184.006-.286.019h-.115l2.75 2.813-1.719 1.747-5.748-5.84L38.475 21l1.72 1.746-2.827 2.872c.127-.013.248-.02.363-.02h.382c1.35 0 2.648.182 3.896.544 1.248.349 2.413.847 3.495 1.494a14.534 14.534 0 0 1 2.98 2.328 14.712 14.712 0 0 1 2.291 3.027 14.756 14.756 0 0 1 1.47 3.55c.357 1.269.536 2.588.536 3.959zm-25.573 9.934a14.884 14.884 0 0 1-3.762-9.934c0-1.216.14-2.406.42-3.57.293-1.177.713-2.29 1.26-3.337a14.754 14.754 0 0 1 4.66-5.336l1.777 1.804a12.208 12.208 0 0 0-2.369 1.999c-.7.763-1.298 1.597-1.795 2.503-.484.892-.86 1.843-1.127 2.852a12.408 12.408 0 0 0-.382 3.085c0 .983.115 1.947.344 2.891.23.931.554 1.824.974 2.678.433.84.955 1.636 1.566 2.386a12.183 12.183 0 0 0 2.082 1.98h-3.648z" fill="#00B294"/></svg>
